svgs/sharp-solid/dumpster.svg

<svg xmlns="http://www.w3.org/2000/svg" viewBox="0 0 576 512"><!--! Font Awesome Pro 6.6.0 by @fontawesome - https://fontawesome.com License - https://fontawesome.com/license (Commercial License) Copyright 2024 Fonticons, Inc. --><path d="M32 32L0 160l114.9 0L140.5 32 32 32zM272 160l0-128-98.9 0L147.5 160 272 160zm32 0l124.5 0L402.9 32 304 32l0 128zm157.1 0L576 160 544 32 435.5 32l25.6 128zM32 192l4 32L0 224l0 64 44 0L64 448l0 32 64 0 0-32 320 0 0 32 64 0 0-32 20-160 44 0 0-64-36 0 4-32L32 192z"/></svg>

<svg xmlns="http://www.w3.org/2000/svg" viewBox="0 0 576 512"><!--! Font Awesome Pro 6.4.0 by @fontawesome - https://fontawesome.com License - https://fontawesome.com/license (Commercial License) Copyright 2023 Fonticons, Inc. --><path d="M32 32L0 160H114.9L140.5 32H32zM272 160V32H173.1L147.5 160H272zm32 0H428.5L402.9 32H304V160zm157.1 0H576L544 32H435.5l25.6 128zM32 192l4 32H0v64H44L64 448l0 32h64V448H448v32h64V448l20-160h44V224H540l4-32H32z"/></svg>
